;FLAVOR:Marlin
;TIME:3450
;Filament used: 2.12297m
;Layer height: 0.28
;MINX:88.546
;MINY:94.1
;MINZ:0.28
;MAXX:185.197
;MAXY:181.703
;MAXZ:70.2
;Generated with Cura_SteamEngine 5.4.0
M140 S50
M105
M190 S50
M104 S200
M105
M109 S200
M82 ;absolute extrusion mode
; Ender 3 Custom Start G-code
G92 E0 ; Reset Extruder
G28 ; Home all axes
G1 Z2.0 F3000 ; Move Z Axis up little to prevent scratching of Heat Bed
G1 X0.1 Y20 Z0.3 F5000.0 ; Move to start position
G1 X0.1 Y200.0 Z0.3 F1500.0 E15 ; Draw the first line
G1 X0.4 Y200.0 Z0.3 F5000.0 ; Move to side a little
G1 X0.4 Y20 Z0.3 F1500.0 E30 ; Draw the second line
G92 E0 ; Reset Extruder
G1 Z2.0 F3000 ; Move Z Axis up little to prevent scratching of Heat Bed
G1 X5 Y20 Z0.3 F5000.0 ; Move over to prevent blob squish
M83 ;relative extrusion mode
G1 F2700 E-5
;LAYER_COUNT:266
;LAYER:0
M107
;MESH:Foot.stl
G0 F6000 X166.467 Y176.846 Z0.28
;TYPE:WALL-OUTER
G1 F2700 E5
G1 F1200 X166.118 Y176.578 E0.02049
G1 X165.601 Y176.247 E0.02858
G1 X165.344 Y175.981 E0.01722
G1 X165.051 Y175.464 E0.02767
G1 X164.586 Y174.835 E0.03642
G1 X164.306 Y174.323 E0.02717
G1 X163.601 Y173.23 E0.06056
G1 X163.281 Y172.822 E0.02414
G1 X162.372 Y171.746 E0.06559
G1 X162.001 Y171.372 E0.02453
G1 X160.978 Y170.494 E0.06277
G1 X160.593 Y170.184 E0.02302
G1 X159.068 Y169.318 E0.08166
G1 X158.874 Y169.19 E0.01082
G1 X158.591 Y169.095 E0.0139
G1 X157.28 Y168.451 E0.06801
G1 X156.642 Y168.291 E0.03063
G1 X156.136 Y168.036 E0.02638
G1 X155.947 Y167.854 E0.01222
G1 X154.966 Y167.167 E0.05577
G1 X153.163 Y166.067 E0.09835
G1 X152.652 Y165.783 E0.02722
G1 X151.823 Y165.214 E0.04682
G1 X151.623 Y165.106 E0.01058
G1 X150.661 Y164.356 E0.0568
G1 X150.335 Y164.057 E0.0206
G1 X149.384 Y163.095 E0.06299
G1 X149.137 Y162.834 E0.01673
G1 X148.122 Y161.697 E0.07097
G1 X147.876 Y161.4 E0.01796
G1 X146.724 Y159.897 E0.08818
G1 X146.657 Y159.754 E0.00735
G1 X145.573 Y158.012 E0.09554
G1 X144.324 Y155.471 E0.13184
G1 X144.103 Y154.963 E0.0258
G1 X143.998 Y154.749 E0.0111
G1 X143.455 Y153.453 E0.06543
G1 X143.187 Y152.743 E0.03534
G1 X142.493 Y150.765 E0.09761
G1 X142.244 Y150.128 E0.03185
G1 X141.364 Y147.363 E0.13511
G1 X141.117 Y146.685 E0.0336
G1 X140.33 Y143.786 E0.13988
G1 X140.237 Y143.331 E0.02162
G1 X139.736 Y141.335 E0.09583
G1 X139.166 Y139.415 E0.09326
G1 X138.664 Y138.298 E0.05702
G1 X138.411 Y137.654 E0.03222
G1 X137.49 Y136.085 E0.08472
G1 X136.249 Y134.569 E0.09123
G1 X134.913 Y133.314 E0.08535
G1 X133.498 Y132.189 E0.08417
G1 X132.031 Y131.109 E0.08482
G1 X130.757 Y130.199 E0.0729
G1 X129.359 Y129.292 E0.0776
G1 X127.849 Y128.475 E0.07994
G1 X126.454 Y127.956 E0.06931
G1 X126.094 Y127.798 E0.01831
G1 X124.468 Y127.322 E0.07889
G1 X122.717 Y126.95 E0.08335
G1 X121.129 Y126.674 E0.07505
G1 X119.4 Y126.445 E0.08121
G1 X117.926 Y126.313 E0.06891
G1 X117.682 Y126.283 E0.01145
G1 X116.161 Y126.159 E0.07106
G1 X114.913 Y126.077 E0.05824
G1 X112.615 Y125.849 E0.10753
G1 X111.613 Y125.698 E0.04718
G1 X110.803 Y125.553 E0.03832
G1 X109.594 Y125.354 E0.05705
G1 X109.137 Y125.304 E0.02141
G1 X108.603 Y125.191 E0.02542
G1 X106.643 Y124.648 E0.0947
G1 X106.048 Y124.47 E0.02892
G1 X105.873 Y124.442 E0.00825
G1 X105.617 Y124.344 E0.01276
G1 X104.47 Y123.827 E0.05858
G1 X103.409 Y123.318 E0.0548
G1 X102.611 Y123.005 E0.03991
G1 X101.079 Y122.321 E0.07812
G1 X101.001 Y122.27 E0.00434
G1 X99.359 Y121.374 E0.0871
G1 X98.762 Y120.998 E0.03285
G1 X98.074 Y120.505 E0.03941
G1 X97.309 Y119.835 E0.04735
G1 X96.773 Y119.399 E0.03217
G1 X96.387 Y119.029 E0.0249
G1 X95.465 Y118.01 E0.06399
G1 X94.281 Y116.65 E0.08396
G1 X93.787 Y116.176 E0.03188
G1 X93.512 Y115.803 E0.02158
G1 X93.296 Y115.353 E0.02324
G1 X92.702 Y114.446 E0.05048
G1 X92.475 Y114.012 E0.02281
G1 X92.302 Y113.741 E0.01497
G1 X91.674 Y112.431 E0.06765
G1 X91.234 Y111.568 E0.04511
G1 X91.066 Y111.069 E0.02452
G1 X90.86 Y110.249 E0.03937
G1 X90.849 Y109.207 E0.04852
G1 X90.819 Y108.859 E0.01626
G1 X90.83 Y107.705 E0.05374
G1 X90.974 Y106.355 E0.06322
G1 X90.997 Y106.045 E0.01447
G1 X91.314 Y103.799 E0.10562
G1 X91.784 Y102.466 E0.06582
G1 X92.815 Y100.759 E0.09286
G1 X94.062 Y99.381 E0.08654
G1 X95.522 Y98.223 E0.08677
G1 X97.022 Y97.288 E0.0823
G1 X97.827 Y96.894 E0.04173
G1 X99.157 Y96.388 E0.06626
G1 X100.253 Y96.04 E0.05355
G1 X102.976 Y95.681 E0.12789
G1 X105.406 Y95.576 E0.11326
G1 X106.78 Y95.644 E0.06406
G1 X107.338 Y95.691 E0.02607
G1 X108.061 Y95.798 E0.03403
G1 X108.995 Y96 E0.0445
G1 X109.778 Y96.199 E0.03762
G1 X110.971 Y96.535 E0.05771
G1 X112.195 Y97.036 E0.06158
G1 X112.613 Y97.231 E0.02148
G1 X114.156 Y98.054 E0.08143
G1 X114.508 Y98.228 E0.01828
G1 X115.629 Y98.854 E0.05979
G1 X116.83 Y99.484 E0.06315
G1 X118.55 Y100.408 E0.09092
G1 X118.779 Y100.555 E0.01267
G1 X119.382 Y100.879 E0.03187
G1 X120.406 Y101.459 E0.0548
G1 X120.631 Y101.571 E0.0117
G1 X121.674 Y102.188 E0.05643
G1 X122.411 Y102.573 E0.03872
G1 X123.071 Y102.882 E0.03393
G1 X123.605 Y103.19 E0.0287
G1 X123.995 Y103.37 E0.02
G1 X125.225 Y103.889 E0.06216
G1 X125.397 Y103.972 E0.00889
G1 X125.764 Y104.096 E0.01804
G1 X126.678 Y104.504 E0.04661
G1 X127.633 Y104.809 E0.04668
G1 X130.109 Y105.74 E0.12317
G1 X131.719 Y106.164 E0.07752
G1 X132.254 Y106.399 E0.02721
G1 X132.791 Y106.592 E0.02657
G1 X133.828 Y107.035 E0.05251
G1 X134.858 Y107.386 E0.05067
G1 X135.242 Y107.55 E0.01944
G1 X136.482 Y107.955 E0.06074
G1 X137.699 Y108.603 E0.0642
G1 X138.182 Y108.785 E0.02403
G1 X139.055 Y109.217 E0.04536
G1 X139.715 Y109.438 E0.03241
G1 X140.327 Y109.716 E0.0313
G1 X141.245 Y109.992 E0.04464
G1 X141.979 Y110.273 E0.0366
G1 X142.759 Y110.672 E0.0408
G1 X143.163 Y110.799 E0.01972
G1 X144.312 Y111.324 E0.05882
G1 X145.373 Y111.638 E0.05152
G1 X145.774 Y111.815 E0.02041
G1 X146.019 Y111.897 E0.01203
G1 X146.765 Y112.2 E0.03749
G1 X147.617 Y112.625 E0.04433
G1 X147.978 Y112.757 E0.0179
G1 X149.28 Y113.416 E0.06795
G1 X150.197 Y113.777 E0.04589
G1 X150.701 Y114.053 E0.02676
G1 X151.008 Y114.191 E0.01567
G1 X152.102 Y114.735 E0.05689
G1 X152.531 Y114.995 E0.02336
G1 X154.063 Y115.71 E0.07872
G1 X154.374 Y115.828 E0.01549
G1 X155.218 Y116.108 E0.04141
G1 X155.816 Y116.348 E0.03
G1 X156.262 Y116.559 E0.02297
G1 X156.678 Y116.715 E0.02069
G1 X157.583 Y117.147 E0.0467
G1 X158.95 Y117.701 E0.06868
G1 X159.251 Y117.809 E0.01489
G1 X160.561 Y118.416 E0.06723
G1 X160.839 Y118.514 E0.01373
G1 X161.654 Y118.743 E0.03942
G1 X162.36 Y119.261 E0.04077
G1 X163.295 Y119.812 E0.05054
G1 X163.86 Y120.171 E0.03117
G1 X165.19 Y120.968 E0.0722
G1 X166.721 Y122.002 E0.08603
G1 X168.036 Y123.043 E0.0781
G1 X169.289 Y124.185 E0.07894
G1 X170.469 Y125.395 E0.0787
G1 X171.717 Y126.777 E0.08671
G1 X173.479 Y128.851 E0.12672
G1 X173.917 Y129.307 E0.02944
G1 X175.146 Y130.512 E0.08015
G1 X176.311 Y131.537 E0.07225
G1 X176.532 Y131.778 E0.01523
G1 X177.217 Y132.467 E0.04524
G1 X177.998 Y133.197 E0.04978
G1 X178.678 Y134.07 E0.05153
G1 X179 Y134.443 E0.02294
G1 X179.072 Y134.779 E0.016
G1 X179.615 Y136.277 E0.07419
G1 X179.805 Y136.919 E0.03118
G1 X180.093 Y137.827 E0.04436
G1 X180.14 Y138.224 E0.01862
G1 X180.133 Y138.965 E0.03451
G1 X180.192 Y139.964 E0.0466
G1 X180.187 Y140.262 E0.01388
G1 X180.25 Y140.732 E0.02208
G1 X180.279 Y141.715 E0.04579
G1 X180.379 Y142.156 E0.02106
G1 X180.632 Y142.998 E0.04094
G1 X180.752 Y143.571 E0.02726
G1 X180.794 Y143.938 E0.0172
G1 X180.804 Y144.566 E0.02925
G1 X180.784 Y145.055 E0.02279
G1 X180.758 Y145.404 E0.0163
G1 X180.531 Y146.397 E0.04743
G1 X180.425 Y147.668 E0.05939
G1 X180.13 Y149.373 E0.08057
G1 X180.452 Y151.249 E0.08863
G1 X180.788 Y151.954 E0.03637
G1 X181.884 Y153.616 E0.0927
G1 X182.178 Y154.445 E0.04096
G1 X182.363 Y155.205 E0.03642
G1 X182.516 Y155.911 E0.03364
G1 X182.559 Y156.407 E0.02318
G1 X182.585 Y157.183 E0.03615
G1 X182.686 Y157.906 E0.03399
G1 X182.75 Y158.444 E0.02523
G1 X182.86 Y159.038 E0.02813
G1 X182.933 Y159.652 E0.02879
G1 X183.141 Y160.329 E0.03298
G1 X183.352 Y161.233 E0.04323
G1 X183.6 Y161.733 E0.02599
G1 X183.925 Y162.44 E0.03623
G1 X184.121 Y163.044 E0.02957
G1 X184.207 Y163.451 E0.01937
G1 X184.323 Y164.669 E0.05697
G1 X184.029 Y165.903 E0.05907
G1 X183.896 Y166.595 E0.03281
G1 X183.725 Y166.928 E0.01743
G1 X183.028 Y167.816 E0.05257
G1 X182.868 Y167.995 E0.01118
G1 X181.753 Y169.456 E0.08558
G1 X180.857 Y171.065 E0.08576
G1 X180.795 Y171.405 E0.01609
G1 X180.531 Y172.554 E0.0549
G1 X180.372 Y173.025 E0.02315
G1 X180.259 Y173.415 E0.01891
G1 X179.858 Y174.502 E0.05395
G1 X179.666 Y174.992 E0.02451
G1 X179.125 Y176.004 E0.05343
G1 X178.624 Y176.686 E0.0394
G1 X178.021 Y177.367 E0.04235
G1 X177.339 Y177.864 E0.03929
G1 X176.315 Y178.482 E0.05569
G1 X175.825 Y178.667 E0.02439
G1 X175.369 Y178.813 E0.0223
G1 X174.23 Y179.036 E0.05404
G1 X173.8 Y179.039 E0.02002
G1 X173.409 Y178.943 E0.01875
G1 X171.3 Y178.82 E0.09837
G1 X171.17 Y178.764 E0.00659
G1 X169.553 Y178.225 E0.07937
G1 X167.935 Y177.446 E0.08362
G1 X167.085 Y177.068 E0.04332
G1 X166.467 Y176.846 E0.03058
G1 F2700 E-5
G0 F6000 X165.625 Y177.289
G0 X165.046 Y176.919
G0 X149.743 Y164.687
G0 X148.503 Y163.425
G0 X147.203 Y161.942
G0 X145.976 Y160.345
G0 X145.037 Y158.795
G0 X129.333 Y130.304
G0 X135.942 Y120.117
;TYPE:SKIN
G1 F2700 E5
G1 F840.6 X135.506 Y119.876 E0.03311
G1 F2700 E-5
G0 F6000 X126.729 Y116.379
G1 F2700 E5
G1 F1073.8 X126.151 Y116.213 E0.03129
G1 F921.3 X125.572 Y116.046 E0.03655
G1 F806.7 X124.993 Y115.879 E0.04174
G1 F2700 E-5
G0 F6000 X110.411 Y111.541
G1 F2700 E5
G1 F880.7 X109.128 Y110.896 E0.09111
G1 F771.7 X108.369 Y110.531 E0.06098
G1 F2700 E-5
G0 F6000 X103.047 Y124.107
G0 X150.096 Y165.011
G0 X151.356 Y165.944
G0 X155.63 Y168.748
G0 X156.206 Y169.038
G0 X156.96 Y169.258
G0 X157.536 Y167.743
G1 F2700 E5
G1 F1200 X157.432 Y168.124 E0.01839
G1 X158.733 Y168.763 E0.06749
G1 X159.019 Y168.86 E0.01406
G1 X159.258 Y169.011 E0.01316
G1 X160.797 Y169.887 E0.08246
G1 X161.208 Y170.217 E0.02454
G1 X162.249 Y171.109 E0.06383
G1 X162.636 Y171.5 E0.02562
G1 X163.56 Y172.595 E0.06672
G1 X163.903 Y173.032 E0.02587
G1 X164.629 Y174.163 E0.06258
G1 X164.889 Y174.639 E0.02526
G1 X165.364 Y175.286 E0.03737
G1 X165.636 Y175.764 E0.02561
G1 X165.83 Y175.965 E0.01301
G1 X166.321 Y176.28 E0.02716
G1 X166.642 Y176.527 E0.01886
G1 X167.223 Y176.735 E0.02874
G1 X167.975 Y177.065 E0.03824
G1 X169.698 Y177.893 E0.08901
G1 X171.315 Y178.434 E0.0794
G1 X171.382 Y178.464 E0.00342
G1 X173.444 Y178.584 E0.09618
G1 X173.841 Y178.678 E0.019
G1 X174.192 Y178.676 E0.01634
G1 X175.285 Y178.461 E0.05187
G1 X175.715 Y178.324 E0.02101
G1 X176.156 Y178.158 E0.02194
G1 X177.14 Y177.564 E0.05352
G1 X177.774 Y177.103 E0.0365
G1 X178.341 Y176.46 E0.03992
G1 X178.823 Y175.803 E0.03794
G1 X179.335 Y174.851 E0.05033
G1 X179.915 Y173.305 E0.07689
G1 X180.022 Y172.933 E0.01802
G1 X180.182 Y172.463 E0.02312
G1 X180.443 Y171.326 E0.05432
G1 X180.521 Y170.927 E0.01893
G1 X181.433 Y169.284 E0.0875
G1 X182.597 Y167.759 E0.08933
G1 X182.747 Y167.591 E0.01049
G1 X183.421 Y166.732 E0.05084
G1 X183.551 Y166.476 E0.01337
G1 X183.677 Y165.825 E0.03088
G1 X183.958 Y164.638 E0.0568
G1 X183.851 Y163.503 E0.05308
G1 X183.778 Y163.155 E0.01656
G1 X183.588 Y162.571 E0.0286
G1 X183.273 Y161.884 E0.03519
G1 X183.009 Y161.339 E0.0282
G1 X182.79 Y160.414 E0.04426
G1 X182.58 Y159.724 E0.03358
G1 X182.502 Y159.083 E0.03007
G1 X182.393 Y158.501 E0.02757
G1 X182.328 Y157.948 E0.02593
G1 X182.225 Y157.207 E0.03484
G1 X182.199 Y156.421 E0.03662
G1 X182.16 Y155.968 E0.02117
G1 X182.012 Y155.282 E0.03268
G1 X181.837 Y154.565 E0.03437
G1 X181.559 Y153.778 E0.03887
G1 X180.479 Y152.14 E0.09136
G1 X180.112 Y151.383 E0.03917
G1 X179.765 Y149.367 E0.09525
G1 X180.069 Y147.608 E0.08312
G1 X180.18 Y146.318 E0.06029
G1 X180.4 Y145.353 E0.04609
G1 X180.424 Y145.028 E0.01517
G1 X180.443 Y144.551 E0.02223
G1 X180.434 Y143.962 E0.02743
G1 X180.398 Y143.645 E0.01486
G1 X180.279 Y143.074 E0.02716
G1 X180.026 Y142.236 E0.04076
G1 X179.924 Y141.763 E0.02253
G1 X179.891 Y140.779 E0.04584
G1 X179.829 Y140.29 E0.02295
G1 X179.831 Y139.984 E0.01425
G1 X179.773 Y138.972 E0.0472
G1 X179.779 Y138.246 E0.03381
G1 X179.739 Y137.9 E0.01622
G1 X179.428 Y136.93 E0.04743
G1 X179.27 Y136.38 E0.02665
G1 X178.728 Y134.887 E0.07396
G1 X178.669 Y134.613 E0.01305
G1 X178.416 Y134.321 E0.01799
G1 X177.739 Y133.45 E0.05137
G1 X176.964 Y132.724 E0.04945
G1 X176.269 Y132.025 E0.0459
G1 X176.06 Y131.796 E0.01444
G1 X174.894 Y130.77 E0.07232
G1 X173.653 Y129.552 E0.08097
G1 X173.196 Y129.076 E0.03073
G1 X171.442 Y127.012 E0.12612
G1 X170.203 Y125.638 E0.08615
G1 X169.046 Y124.451 E0.07718
G1 X167.794 Y123.31 E0.07888
G1 X166.519 Y122.302 E0.07568
G1 X164.996 Y121.273 E0.08559
G1 X163.669 Y120.476 E0.07208
G1 X163.111 Y120.122 E0.03077
G1 X162.167 Y119.567 E0.05099
G1 X161.494 Y119.073 E0.03887
G1 X160.708 Y118.849 E0.03806
G1 X160.417 Y118.747 E0.01436
G1 X159.104 Y118.138 E0.0674
G1 X158.811 Y118.034 E0.01448
G1 X157.441 Y117.479 E0.06883
G1 X156.537 Y117.047 E0.04665
G1 X156.108 Y116.885 E0.02135
G1 X155.661 Y116.673 E0.02304
G1 X155.103 Y116.45 E0.02798
G1 X154.233 Y116.161 E0.04269
G1 X153.91 Y116.037 E0.01611
G1 X152.357 Y115.312 E0.07981
G1 X151.924 Y115.05 E0.02357
G1 X150.849 Y114.515 E0.05591
G1 X150.519 Y114.366 E0.01686
G1 X150.045 Y114.105 E0.0252
G1 X149.146 Y113.752 E0.04497
G1 X147.84 Y113.09 E0.06818
G1 X147.461 Y112.951 E0.0188
G1 X146.604 Y112.524 E0.04458
G1 X145.893 Y112.237 E0.0357
G1 X145.623 Y112.143 E0.01331
G1 X145.242 Y111.975 E0.01939
G1 X144.196 Y111.666 E0.05079
G1 X143.032 Y111.135 E0.05957
G1 X142.637 Y111.012 E0.01926
G1 X141.829 Y110.603 E0.04217
G1 X141.133 Y110.335 E0.03473
G1 X140.166 Y110.042 E0.04705
G1 X139.58 Y109.773 E0.03002
G1 X138.911 Y109.548 E0.03287
G1 X138.038 Y109.117 E0.04533
G1 X137.567 Y108.941 E0.02341
G1 X136.335 Y108.287 E0.06495
G1 X135.1 Y107.881 E0.06053
G1 X134.721 Y107.721 E0.01916
G1 X133.712 Y107.377 E0.04964
G1 X132.65 Y106.925 E0.05374
G1 X132.107 Y106.728 E0.0269
G1 X131.606 Y106.508 E0.02548
G1 X130 Y106.083 E0.07736
G1 X127.521 Y105.151 E0.12332
G1 X126.528 Y104.831 E0.04858
G1 X125.63 Y104.432 E0.04576
G1 X125.241 Y104.297 E0.01917
G1 X125.069 Y104.215 E0.00887
G1 X123.848 Y103.699 E0.06172
G1 X123.451 Y103.517 E0.02034
G1 X122.899 Y103.199 E0.02966
G1 X122.236 Y102.889 E0.03408
G1 X121.495 Y102.501 E0.03895
G1 X120.458 Y101.888 E0.05609
G1 X120.233 Y101.776 E0.0117
G1 X119.205 Y101.193 E0.05503
G1 X118.581 Y100.855 E0.03304
G1 X118.355 Y100.711 E0.01248
G1 X116.557 Y99.748 E0.09497
G1 X115.457 Y99.171 E0.05784
G1 X114.332 Y98.549 E0.05986
G1 X114.111 Y98.44 E0.01147
G1 X112.538 Y97.6 E0.08303
G1 X112.049 Y97.366 E0.02524
G1 X110.853 Y96.876 E0.06018
G1 X109.679 Y96.546 E0.05678
G1 X108.906 Y96.35 E0.03713
G1 X107.994 Y96.152 E0.04346
G1 X107.292 Y96.047 E0.03305
G1 X106.762 Y96.004 E0.02476
G1 X105.403 Y95.937 E0.06336
G1 X103.015 Y96.041 E0.1113
G1 X100.324 Y96.396 E0.12639
G1 X99.285 Y96.724 E0.05073
G1 X97.969 Y97.226 E0.06559
G1 X97.198 Y97.603 E0.03996
G1 X95.734 Y98.516 E0.08034
G1 X94.31 Y99.645 E0.08462
G1 X93.104 Y100.977 E0.08367
G1 X92.116 Y102.613 E0.08899
G1 X91.664 Y103.892 E0.06317
G1 X91.357 Y106.073 E0.10256
G1 X91.332 Y106.391 E0.01485
G1 X91.19 Y107.724 E0.06242
G1 X91.18 Y108.861 E0.05295
G1 X91.209 Y109.205 E0.01607
G1 X91.22 Y110.202 E0.04643
G1 X91.413 Y110.968 E0.03678
G1 X91.566 Y111.423 E0.02235
G1 X91.997 Y112.272 E0.04434
G1 X92.618 Y113.568 E0.06692
G1 X92.798 Y113.849 E0.01554
G1 X93.007 Y114.252 E0.02114
G1 X93.604 Y115.162 E0.05068
G1 X93.824 Y115.617 E0.02353
G1 X94.061 Y115.936 E0.0185
G1 X94.553 Y116.414 E0.03194
G1 X95.732 Y117.768 E0.0836
G1 X96.649 Y118.78 E0.06359
G1 X97.009 Y119.126 E0.02325
G1 X97.551 Y119.568 E0.03257
G1 X98.303 Y120.224 E0.04647
G1 X98.956 Y120.692 E0.03741
G1 X99.549 Y121.066 E0.03265
G1 X101.252 Y122.003 E0.09051
G1 X102.743 Y122.668 E0.07602
G1 X103.553 Y122.988 E0.04055
G1 X104.626 Y123.501 E0.05538
G1 X105.91 Y124.081 E0.06561
G1 X106.144 Y124.122 E0.01106
G1 X106.743 Y124.302 E0.02912
G1 X108.689 Y124.841 E0.09403
G1 X109.197 Y124.947 E0.02416
G1 X109.648 Y124.997 E0.02113
G1 X110.87 Y125.198 E0.05767
G1 X111.669 Y125.342 E0.0378
